icons-dark-themes/actions/toolbar-dark/insert-link.svg

<?xml version="1.0" encoding="UTF-8" standalone="no"?>
<!-- Created with Inkscape (http://www.inkscape.org/) -->

<svg
   xmlns:dc="http://purl.org/dc/elements/1.1/"
   xmlns:cc="http://creativecommons.org/ns#"
   xmlns:rdf="http://www.w3.org/1999/02/22-rdf-syntax-ns#"
   xmlns:svg="http://www.w3.org/2000/svg"
   xmlns="http://www.w3.org/2000/svg"
   xmlns:sodipodi="http://sodipodi.sourceforge.net/DTD/sodipodi-0.dtd"
   xmlns:inkscape="http://www.inkscape.org/namespaces/inkscape"
   width="22"
   height="22"
   id="svg3760"
   version="1.1"
   inkscape:version="0.48+devel r"
   sodipodi:docname="insert-link.svg">
  <defs
     id="defs3762" />
  <sodipodi:namedview
     id="base"
     pagecolor="#ffffff"
     bordercolor="#666666"
     borderopacity="1.0"
     inkscape:pageopacity="0.0"
     inkscape:pageshadow="2"
     inkscape:zoom="23.979307"
     inkscape:cx="8.7043835"
     inkscape:cy="10.633954"
     inkscape:document-units="px"
     inkscape:current-layer="layer1"
     showgrid="true"
     fit-margin-top="0"
     fit-margin-left="0"
     fit-margin-right="0"
     fit-margin-bottom="0"
     inkscape:window-width="1366"
     inkscape:window-height="668"
     inkscape:window-x="-2"
     inkscape:window-y="23"
     inkscape:window-maximized="1"
     inkscape:showpageshadow="false">
    <sodipodi:guide
       position="4.1796875e-06,21.999997"
       orientation="22,0"
       id="guide4116" />
    <sodipodi:guide
       position="4.1796875e-06,-2.6953124e-06"
       orientation="0,22"
       id="guide4118" />
    <sodipodi:guide
       position="22.000004,-2.6953124e-06"
       orientation="-22,0"
       id="guide4120" />
    <sodipodi:guide
       position="22.000004,21.999997"
       orientation="0,-22"
       id="guide4122" />
    <sodipodi:guide
       position="2.0000042,19.999997"
       orientation="18,0"
       id="guide4124" />
    <sodipodi:guide
       position="20.000004,1.9999973"
       orientation="-18,0"
       id="guide4128" />
    <sodipodi:guide
       position="20.000004,19.999997"
       orientation="0,-18"
       id="guide4130" />
    <sodipodi:guide
       position="3.0000042,18.999997"
       orientation="16,0"
       id="guide4132" />
    <sodipodi:guide
       position="3.0000042,2.9999973"
       orientation="0,16"
       id="guide4134" />
    <sodipodi:guide
       position="19.000004,2.9999973"
       orientation="-16,0"
       id="guide4136" />
    <sodipodi:guide
       position="19.000004,18.999997"
       orientation="0,-16"
       id="guide4138" />
    <inkscape:grid
       type="xygrid"
       id="grid4140" />
  </sodipodi:namedview>
  <metadata
     id="metadata3765">
    <rdf:RDF>
      <cc:Work
         rdf:about="">
        <dc:format>image/svg+xml</dc:format>
        <dc:type
           rdf:resource="http://purl.org/dc/dcmitype/StillImage" />
        <dc:title />
      </cc:Work>
    </rdf:RDF>
  </metadata>
  <g
     inkscape:label="Capa 1"
     inkscape:groupmode="layer"
     id="layer1"
     transform="translate(-553.72253,-583.11926)">
    <path
       style="opacity:1;fill:#f2f2f2;fill-opacity:1;stroke:none"
       d="m 7,3 0,2 -4,0 0,1 4,0 0,2 8,0 0,-2 4,0 0,-1 -4,0 0,-2 z m 1,1 6,0 0,3 -6,0 z m 8,10 0,2 -2,0 0,1 2,0 0,2 1,0 0,-2 2,0 0,-1 -2,0 0,-2 z"
       transform="translate(553.72253,583.11926)"
       id="rect4112"
       inkscape:connector-curvature="0"
       sodipodi:nodetypes="ccccccccccccccccccccccccccccccc" />
  </g>
</svg>

<?xml version="1.0" encoding="UTF-8" standalone="no"?>
<!-- Created with Inkscape (http://www.inkscape.org/) -->

<svg
   xmlns:dc="http://purl.org/dc/elements/1.1/"
   xmlns:cc="http://creativecommons.org/ns#"
   xmlns:rdf="http://www.w3.org/1999/02/22-rdf-syntax-ns#"
   xmlns:svg="http://www.w3.org/2000/svg"
   xmlns="http://www.w3.org/2000/svg"
   xmlns:sodipodi="http://sodipodi.sourceforge.net/DTD/sodipodi-0.dtd"
   xmlns:inkscape="http://www.inkscape.org/namespaces/inkscape"
   width="22"
   height="22"
   id="svg3760"
   version="1.1"
   inkscape:version="0.91+devel r"
   sodipodi:docname="insert-link.svg">
  <defs
     id="defs3762" />
  <sodipodi:namedview
     id="base"
     pagecolor="#ffffff"
     bordercolor="#666666"
     borderopacity="1.0"
     inkscape:pageopacity="0.0"
     inkscape:pageshadow="2"
     inkscape:zoom="33.911861"
     inkscape:cx="6.1311316"
     inkscape:cy="16.881747"
     inkscape:document-units="px"
     inkscape:current-layer="layer1"
     showgrid="true"
     fit-margin-top="0"
     fit-margin-left="0"
     fit-margin-right="0"
     fit-margin-bottom="0"
     inkscape:window-width="1366"
     inkscape:window-height="670"
     inkscape:window-x="-4"
     inkscape:window-y="29"
     inkscape:window-maximized="1"
     inkscape:showpageshadow="false">
    <sodipodi:guide
       position="4.1796875e-06,21.999997"
       orientation="22,0"
       id="guide4116" />
    <sodipodi:guide
       position="4.1796875e-06,-2.6953124e-06"
       orientation="0,22"
       id="guide4118" />
    <sodipodi:guide
       position="22.000004,-2.6953124e-06"
       orientation="-22,0"
       id="guide4120" />
    <sodipodi:guide
       position="22.000004,21.999997"
       orientation="0,-22"
       id="guide4122" />
    <sodipodi:guide
       position="2.0000042,19.999997"
       orientation="18,0"
       id="guide4124" />
    <sodipodi:guide
       position="20.000004,1.9999973"
       orientation="-18,0"
       id="guide4128" />
    <sodipodi:guide
       position="20.000004,19.999997"
       orientation="0,-18"
       id="guide4130" />
    <sodipodi:guide
       position="3.0000042,18.999997"
       orientation="16,0"
       id="guide4132" />
    <sodipodi:guide
       position="3.0000042,2.9999973"
       orientation="0,16"
       id="guide4134" />
    <sodipodi:guide
       position="19.000004,2.9999973"
       orientation="-16,0"
       id="guide4136" />
    <sodipodi:guide
       position="19.000004,18.999997"
       orientation="0,-16"
       id="guide4138" />
    <inkscape:grid
       type="xygrid"
       id="grid4140" />
  </sodipodi:namedview>
  <metadata
     id="metadata3765">
    <rdf:RDF>
      <cc:Work
         rdf:about="">
        <dc:format>image/svg+xml</dc:format>
        <dc:type
           rdf:resource="http://purl.org/dc/dcmitype/StillImage" />
        <dc:title />
      </cc:Work>
    </rdf:RDF>
  </metadata>
  <g
     inkscape:label="Capa 1"
     inkscape:groupmode="layer"
     id="layer1"
     transform="translate(-553.72253,-583.11926)">
    <path
       style="opacity:1;fill:#f2f2f2;fill-opacity:1;stroke:none"
       d="M 6 3 L 6 5 L 3 5 L 3 6 L 6 6 L 6 8 L 10 8 L 10 7 L 7 7 L 7 4 L 10 4 L 10 3 L 6 3 z M 12 3 L 12 4 L 15 4 L 15 7 L 12 7 L 12 8 L 16 8 L 16 6 L 19 6 L 19 5 L 16 5 L 16 3 L 12 3 z M 10 5 L 10 6 L 12 6 L 12 5 L 10 5 z M 16 14 L 16 16 L 14 16 L 14 17 L 16 17 L 16 19 L 17 19 L 17 17 L 19 17 L 19 16 L 17 16 L 17 14 L 16 14 z "
       transform="translate(553.72253,583.11926)"
       id="rect4112" />
  </g>
</svg>
